X: 1
T: Tendre pays d'Armor
O: chanson bretonne
M: 2/4
L: 1/8
Z: 2011 John Chambers <jc:trillian.mit.edu>
B: "Chants de France" The Thrift Press, Ithaca, New York, 1934
N: No editor or arranger named
%Q: "Adagio"
K: Gm
[|\
"Gm"G2 "D7"AB | "Gm"G2 "D7"A>G | "D7"^FG AB | "Gm"G2 "D7"{B}A2 |
w: Ten-dre pa-ys d'Ar-*mor, te re-ver-rai-je~en-
w: Seul et tou-jours r\^e-*vant, je pleu-re bien sou-
w: Du-rant les lon-gues* nuits, je pense aux jours en-
"Gm"GG "D7"AB | "Gm"G2 "D7"A>G | "D7"^FG AB | "Gm"G2 "D7"{B}A2 |
w: cor'? Ten-dre pa-ys d'Ar-*mor, te re-ver-rai-je~en-
w: vent. Seul et tou-jours r\^e-*vant, je pleu-re  bien sou-
w: fuis. Dur-ant les lon-gues* nuits, je pense aux jours en-
"Gm"GG "D7"AB | "D7"Ad "Gm"cB | "D7"AG AB | "D7"Ad "Gm"cB |
w: cor'? Ge-n\^ets, bl\'e noir, bru-y\`e-re rose, o\`u mainte a-beil-le et se
w: vent. O\`u sont mes chers a-mis d'en-fance? O\`u sont les jeux, les cris, la
w: fuis. Je crois er-rer sur le ri-vage, o\`u vient mu-gir le flot sau-
"D7"AG AB | "Gm"G2 "D7"A>G | "D7"^FG AB | "Gm"G2 "D7"{B}A2 | "Gm"G4 |]
w: pose. ah, quand je songe \`a* vous, com-bien c'est triste et doux!
w: danse, Et le joy-eux bin-*iou, qui me rend pres-que fou?
w: vage, et res-pi-rer la* mer au lar-ge souffle a-mer.
